X:86
T: Verschlafener Jaeger
N: Q0152C
O: Osteuropa, UdSSR, Krim, Neusatz
N: Grundton in der kleinen Oktave.
R: Ballade, Verfuehrung, Versagen, Spott
M: 3/4
L: 1/8
K: G
GB | d3gdc | B3ABd | dcB2dB | A2z2
GB | d3gdc | B3ABd | dcB2dB | A2z2
dd | B2d2A2 | A2edcA | G2g2ed | g2z2
dd | B2d2G2 | A2edcA | G2z2

